archdroid-icon-theme/Archdroid-BrownDark/emblems/scalable/emblem-ohno-symbolic.svg

<svg fill="#3E2723" viewBox="0 0 48 48" xmlns="http://www.w3.org/2000/svg"><path d="m27.5 31.5a3.5 3.5 0 0 1 -3.5 3.5 3.5 3.5 0 0 1 -3.5-3.5 3.5 3.5 0 0 1 3.5-3.5 3.5 3.5 0 0 1 3.5 3.5m-10.5-9.5c1.66 0 3-1.34 3-3s-1.34-3-3-3-3 1.34-3 3 1.34 3 3 3zm14 0c1.66 0 3-1.34 3-3s-1.34-3-3-3-3 1.34-3 3 1.34 3 3 3m-7.01-18c-11.05 0-19.99 8.95-19.99 20s8.94 20 19.99 20 20.01-8.95 20.01-20-8.96-20-20.01-20m.01 4c8.84 0 16 7.16 16 16s-7.16 16-16 16-16-7.16-16-16 7.16-16 16-16" fill="#bdbdbd"/></svg>

<svg xmlns="http://www.w3.org/2000/svg" fill="#3E2723" viewBox="0 0 48 48"><path d="M27.5 31.5A3.5 3.5 0 0 1 24 35 3.5 3.5 0 0 1 20.5 31.5 3.5 3.5 0 0 1 24 28 3.5 3.5 0 0 1 27.5 31.5M17 22c1.66 0 3-1.34 3-3 0-1.66-1.34-3-3-3-1.66 0-3 1.34-3 3 0 1.66 1.34 3 3 3zm14 0c1.66 0 3-1.34 3-3 0-1.66-1.34-3-3-3-1.66 0-3 1.34-3 3 0 1.66 1.34 3 3 3M23.99 4C12.94 4 4 12.95 4 24 4 35.05 12.94 44 23.99 44 35.04 44 44 35.05 44 24 44 12.95 35.04 4 23.99 4M24 8C32.84 8 40 15.16 40 24 40 32.84 32.84 40 24 40 15.16 40 8 32.84 8 24 8 15.16 15.16 8 24 8" fill="#bdbdbd"/></svg>
